X:14
T:Slide from Sarah
R:Slide
M:6/8
K:D
L:1/8
S:Played by Sarah Greenwell the first time she came to the West Lafayette session
d2f g2e | fed B2A | d2f a2f | e3 ede | 
f2a g2e | fed B2A | def edc |1 d3 d3 :|2 d3 dcd |
|: efe ece | a3 a3 | efe edc | d2c Bcd | 
efe ece | a3 a3 | efe dcB |1  A3 A3 :|2 ABA GFE | D2

